!!!!SEGMENT: pl-wtm--r-2032--001_smietanski-emil-wladyslaw--fantasie-hongroise-op-26.krn
!!!cenid: 18xx:2013
!!!COM: Śmietański, Emil Władysław
!!!COM-rismID: pe50041781
!!!CDT: 1845-1886
!!!CNT: Polish
!!!OTL: Fantasie hongroise op. 26
!!!PDT: 1869
!!!AGN: Secular
!!!SMS-siglum: PL-Wtm
!!!SMS-shelfmark: R 2032
!!!SMS-shelfwork: 001 W
!!!SMS-variant:
!!!SMS-altvar:
!!!NIFC-rismSourceID: 1001111859
!!!NIFC-islandoraID: pl-wtm:29573
!!!URL-pdf-islandora: https://repozytorium.nifc.pl/islandora/object/pl-wtm%3A29573/datastream/PDF/view
!!!URL-scan: https://polish.musicsources.pl/pl/lokalizacje/galeria/rekopisy/6524 @EN{Scan on Polish Music Sources Website} @PL{Skany w portalu Dziedzictwo Muzyki Polskiej w otwartym dostępie}
!!!ONB-nifc: UWAGA: w zbiorze 1. Fantasie hongroise op. 26, 2. Csardas
!!!AIN: 1 empty
!!!key:
**kern	**kern
*part1	*part1
*staff2	*staff1
*Iempty	*Iforte
*	*I"Fortepian
*	*I'pf
*clefF4	*clefG2
*k[f#c#g#d#a#]	*k[f#c#g#d#a#]
*a-:	*a-:
*>[A,B,B,C]	*>[A,B,B,C]
=1-	=1-
*>A	*>A
*Xtuplet	*Xtuplet
!!LO:TX:a:t=P:problem:all\right:global
!	!LO:TX:a:t=P:problem=w źródle 1 strona jako ad libitum [brak oznaczenia metrum, później 2/4]
!	!LO:TX:a:Bi:t=Lassù.:rj
4GG# 4GGG#/	8g#L 8d# 8B/
.	8a#/J
4B 4G# 4D#\	4b 4g# 4d#/
4AA# 4AAA#/	44bLLL 44g# 44c##X/
.	44a#/
.	44b/
.	44a#/
.	44b/
.	44a#/
.	44b/
.	44a#/
.	44b/
.	44a#/
.	44b/JJJ
4c##X 4G# 4C##X\	12.cc#/L
.	24b/L
.	24a#/
.	24g#/JJ
=2-	=2-
32qqD# 32qqDD#\	32qqcc##X 32qqg#\
4c## 4G# 4D#\	4cc##y 4g#\
32qqD# 32qqDD#\	32qqdd# 32qqf##X\
4d# 4F##X 4D#;>\	4dd# 4f##y;>\
.	64qqd#/LLLL
.	64qqc##X/
.	64qqd#/
.	64qqe/
.	64qqf##X/
.	64qqg#/
.	64qqa#/
.	64qqb/JJJJ
*	*tuplet
!	!LO:TUP:a:problem=klamra łukowa
4GG# 4GGG#/	12bL 12g# 12d#\
.	12b\
.	12b\J
*	*Xtuplet
4d# 4B 4G# 4D#\	32b\LLL
.	32b\
.	32b\
.	32b\
.	32b\
.	32b\
.	32b\
.	32b\JJJ
=3-	=3-
4AA# 4AAA#/	52bLLL 52g# 52c##X\
.	52a#\
.	52b\
.	52a#\
.	52b\
.	52a#\
.	52b\
.	52a#\
.	52b\
.	52a#\
.	52b\
.	52a#\
.	52b\JJJ
4c##X 4G# 4C##X\	12.cc##\L
.	24b\L
.	24a#\
.	24g#\JJ
32qqD# 32qqDD#\	32qqcc##X 32qqg#\
4c## 4G# 4D#\	4cc##y 4g#\
32qqD# 32qqDD#\	32qqdd# 32qqf##X\
4d# 4F##X 4D#;>\	4dd# 4f##;>\
!!LO:LB:g=original
=4-	=4-
.	32qqe/
8.d#L 8.B 8.E 8.FF#\	8.dd#L 8.b 8.e\
16c#yJk 16A#\	16cc#yJk 16a#\
8.c#L 8.A# 8.D# 8.GG#\	8.cc#L 8.a#\
16BJk 16G#\	16bJk 16g#\
8.BL 8.G# 8.GG#\	8.bL 8.g#\
16A#Jk 16F#y\	16a#Jk 16f#y\
8.A#L 8.F# 8.C##\	8.a#L 8.f#\
16G#Jk 16E\	16g#Jk 16e\
=5-	=5-
64qqBBB\LLLL	.
64qqG#JJJJ 64qqE 64qqBB\	64qqg# 64qqe/
!LO:N:vis=16	!LO:N:vis=16
64F#LL 64D#\	64f#LL 64d#\
64E#XLL 64C##X\	64e#XLL 64c##X\
64F# 64D#\	64f# 64d#\
64G# 64En\	64g# 64en\
64F# 64D#\	64f# 64d#\
64G#\	64g# 64e\
64F# 64D#\	64f# 64d#\
64E 64C##\	64e#X 64c##\
64F# 64D#\	64f# 64d#\
64G#\	64g# 64en\
64F# 64D#\	64f# 64d#\
64E 64C##\	64e#X 64c##\
64F# 64D#\	64f# 64d#\
64G#\	64g# 64en\
64F# 64D#\	64f# 64d#\
64EJJJJ 64C##\	64e#XJJJJ 64c##\
64F#LLLL 64D#\	64f#LLLL 64d#\
64B\	64b\
64F# 64D#\	64f# 64d#\
64B\JJJJ	64b\JJJJ
4.F# 4.D#\	4.f# 4.d#\
!LO:N:vis=8	!LO:N:vis=8
16B\	16b\
8BL 8En 8C## 8CC#\	8bL 8en\
8A#\J	8a#\J
=6-	=6-
8EL 8AA# 8EE\	8eL 8c##\
8A#\J	8a#\J
.	32qqB/
8A#L 8D# 8AA# 8DD#\	8a#L 8d# 8B\
8G#J 8GG#\	8g#\J
.	32qqf##X/LLL
.	32qqg#/
.	32qqa#/JJJ
8G#L 8D# 8GG#\	8bL 8d# 8c##\
8F##XJ 8FF##X\	8f##X\J
4G# 4D# 4GG#\	4g# 4d# 4B\
=7-	=7-
.	64qqg#\LLLL
32qqEE\LLL	64qqa#\
.	64qqb\
32qqBB\	64qqcc#\
.	64qqdd#\
32qqG#\JJJ	64qqee\
.	64qqff#\JJJJ
4.g# 4.e 4.G#\	4.gg# 4.ee\
!!LO:LB:g=original
8ryy	8ryy
2ryy	2ryy
=8-	=8-
8f# 8d#\	8ff# 8dd#\
32qqFF#y\	.
16f#LL 16d# 16F##\	16ff#LL 16dd# 16a#\
16eJJ 16c#\	16eeJJ 16cc#\
16eLL 16c# 16E\	16eeLL 16cc#\
16d#JJ 16B\	16dd#JJ 16b\
32qqBBB\LLL	64qqcc##XLLLL 64qqa#\
.	64qqdd# 64qqb\
.	64qqee 64qqcc#X\
.	64qqdd# 64qqb\
32qqFF#\	64qqcc##X 64qqa#\
.	64qqdd# 64qqb\
.	64qqee 64qqcc#X\
.	64qqdd# 64qqb\
.	64qqcc##X 64qqa#\
.	64qqee 64qqcc#X\
32qqD#\JJJ	64qqdd# 64qqb\
.	64qqcc##X 64qqa#\
.	64qqee 64qqcc#X\
.	64qqdd# 64qqb\
.	64qqcc##X 64qqa#\
.	64qqdd#JJJJ 64qqb\
4.d# 4.B 4.D#\	4.dd# 4.b\
16d#\LL	16dd#LL 16b\
16d#\JJ	16dd#JJ 16b\
*	*tuplet
!	!LO:TUP:a:problem=klamra łukowa
24d#\LL	24dd#LL 24b\
24d#\	24dd# 24b\
24d#\JJ	24dd#JJ 24b\
*	*Xtuplet
=9-	=9-
16qqCC#\	.
8d#L 8B 8E\	8dd#L 8b\
8c#J 8A#\	8cc#yJ 8a#\
16c#LL 16A#\	16cc#LL 16a#\
32BJJk 32G#\	32bJJk 32g#\
32r	32r
16BLL 16G#\	16bLL 16g#\
16c#JJ 16A#\	16cc#JJ 16a#\
32qqDD#\	.
16d#LL 16B 16D#\	16dd#LL 16b\
16c#JJ 16A#\	16cc#JJ 16a#\
32BLLL 32G#\	32bLLL 32g#\
32A# 32D#\	32a# 32d#\
32G# 32BB\	32g# 32B\
32A#JJJ 32D#\	32a#JJJ 32d#\
16BLL 16G#\	16bLL 16g#\
16A# 16D#\	16a# 16d#\
16G# 16C#y\	16g# 16c#y\
16F##X\JJ	16f##X\JJ
=10-	=10-
4.G# 4.E 4.C# 4.GG#\	4.g# 4.e 4.c#\
!!LO:LB:g=original
8ryy	8ryy
2ryy	2ryy
=11-	=11-
8D# 8DD#\	104f##X\LLLL
.	104g#\
.	104a#\
.	104g#\
.	104f##\
.	104g#\
.	104a#\
.	104g#\
.	104f##\
.	104a#\
.	104g#\
.	104f##\
.	104g#\JJJJ
32qqGGG#/	.
4.G# 4.D# 4.GG#\	4.g# 4.d# 4.B/
.	8qqd#/
4GG# 4GGG#/	8g#L 8d# 8B/
.	8a#/J
4B 4G# 4D#\	4b 4g# 4d#/
=12-	=12-
4AA# 4AAA#/	52bLLL 52g# 52c##X/
.	52a#/
.	52b/
.	52a#/
.	52b/
.	52a#/
.	52b/
.	52a#/
.	52b/
.	52a#/
.	52b/
.	52a#/
.	52b/JJJ
4c##X 4G# 4C##X\	12.cc#/L
.	24b/L
.	24a#/
.	24g#/JJ
32qqD# 32qqDD#/	32qqcc##X 32qqg#\
4c## 4G# 4D#\	4cc##y 4g#\
32qqD# 32qqDD#/	32qqdd# 32qqf##X\
4d# 4F##X 4D#;>\	4dd# 4f##;>\
=13-	=13-
.	8qqd#\
4GG# 4GGG#/	20g#LL 20d# 20B\
.	20f##X\
.	20g#\
.	20a#\
.	20b\JJ
4B 4G# 4D#\	36bLLL 36g# 36d#\
.	36b\
.	36b\
.	36b\
.	36b\
.	36b\
.	36b\
.	36b\
.	36b\JJJ
4AA# 4AAA#/	64bLLLL 64g# 64c##X\
.	64a#\
.	64b\
.	64a#\
.	64b\
.	64a#\
.	64b\
.	64a#\
.	64b\
.	64a#\
.	64b\
.	64a#\
.	64b\
.	64a#\
.	64b\
.	64a#\JJJJ
!!LO:LB:g=original
4ryy	4ryy
=14-	=14-
4c##X 4G# 4C##X\	12.cc#y\L
.	24b\L
.	24a#\
.	24g#\JJ
32qqD# 32qqDD#\	32qqcc##X 32qqg#\
4c## 4G# 4D#\	4cc##y 4g#\
32qqD# 32qqDD#\	32qqdd# 32qqf##X\
4d# 4F##X 4D#;>\	4dd# 4f##;>\
.	32qqe\
8.d#L 8.B 8.E 8.FF#\	8.dd#L 8.b 8.e\
16c##Jk 16A#\	16cc##Jk 16a#\
=15-	=15-
8.c##yL 8.A# 8.D# 8.GG#\	8.cc##yL 8.a#\
16BJk 16G#\	16bJk 16g#\
8.BL 8.G# 8.GG#\	8.bL 8.g#\
16A#Jk 16F##y\	16a#Jk 16f##y\
8.A#L 8.F## 8.C##y\	8.a#L 8.f##\
16G#Jk 16E\	16g#Jk 16e\
64qqBBB\LLLL	.
64qqG#JJJJ 64qqE 64qqBB\	64qqg# 64qqe/
8F## 8D#\	8f## 8d#/
136E#XLLLL 136C##X\	136e#XLLLL 136c##X/
136F## 136D#\	136f## 136d#/
136G# 136En\	136g# 136en/
136F## 136D#\	136f## 136d#/
136E 136C##\	136e#X 136c##/
136F## 136D#\	136f## 136d#/
136G#\	136g# 136en/
136F## 136D#\	136f## 136d#/
136E 136C##\	136e#X 136c##/
136F## 136D#\	136f## 136d#/
136G#\	136g# 136en/
136F## 136D#\	136f## 136d#/
136E 136C##\	136e#X 136c##/
136F## 136D#\	136f## 136d#/
136B\	136b/
136F## 136D#\	136f## 136d#/
136B\JJJJ	136b/JJJJ
=16-	=16-
4.F##y 4.D#\	4.f##y 4.d#/
8B\	8b/
8BL 8En 8C#y 8CC#\	8bL 8en/
8A#\J	8a#/J
8EL 8C# 8EE\	8eL 8c#y/
8A#\J	8a#/J
=17-	=17-
.	32qqB\
8A#L 8D# 8AA# 8DD#\	8a#L 8d# 8B/
8G#J 8GG#\	8g#/J
.	32qqf##X/LLL
.	32qqg#/
.	32qqa#/JJJ
8G#L 8D# 8GG#\	8bL 8d# 8c#\
8F##XJ 8FF##X\	8f##X\J
!!LO:LB:g=original
2ryy	2ryy
=18-	=18-
4G# 4D# 4GG#\	4g# 4d# 4B\
32qqEE\LLL	64qqg#\LLLL
.	64qqa#\
32qqBB\	64qqb\
.	64qqcc#y\
32qqG#\JJJ	64qqdd#\
.	64qqee\
.	64qqff#\JJJJ
4.g# 4.e 4.G#\	4.gg# 4.ee\
8f# 8d#\	8ff# 8dd#\
32qqFF#y\	.
16f#LL 16d# 16F#y\	16ff#LL 16dd# 16a#\
16eJJ 16c#y\	16eeJJ 16cc#y\
16eLL 16c# 16E\	16eeLL 16cc#\
16d#JJ 16B\	16dd#JJ 16b\
=19-	=19-
32qqBBB\LLL	64qqcc##XLLLL 64qqa#\
.	64qqdd# 64qqb\
.	64qqee 64qqcc#X\
.	64qqdd# 64qqb\
32qqFF#\	64qqcc##X 64qqa#\
.	64qqdd# 64qqb\
.	64qqee 64qqcc#X\
.	64qqdd# 64qqb\
32qqD#\JJJ	64qqcc##X 64qqa#\
.	64qqee 64qqcc#X\
.	64qqdd# 64qqb\
.	64qqcc##X 64qqa#\
.	64qqdd#JJJJ 64qqb\
4.d# 4.B 4.D#\	4.dd# 4.b\
16d#\LL	16dd#LL 16b\
16d#\JJ	16dd#JJ 16b\
*	*tuplet
!	!LO:TUP:a:problem=klamra łukowa
24d#\LL	24dd#LL 24b\
24d#\	24dd# 24b\
24d#\JJ	24dd#JJ 24b\
*	*Xtuplet
16qqCC#\	.
8d#L 8B 8E\	8dd#L 8b\
8c#J 8A#\	8cc##yJ 8a#\
16c#LL 16A#\	16cc##LL 16a#\
!	!LO:TX:t=P:problem=cross-measure beam
16BJJ 16G#\	16bJJ 16g#\
=20-	=20-
16BLL 16G#\	16bLL 16g#\
16c#JJ 16A#\	16cc##yJJ 16a#\
32qqDD#\	.
8d#L 8B 8D#\	8dd#L 8b\
8c#J 8A#\	8cc##J 8a#\
32BLLL 32G#\	32bLLL 32g#\
32A# 32D#\	32a# 32d#\
32G# 32BB\	32g# 32B\
32A#JJJ 32D#\	32a#JJJ 32d#\
16BLL 16G#\	16bLL 16g#\
16A# 16D#\	16a# 16d#\
16G# 16C#\	16g# 16c#\
16F##X\JJ	16f##X\JJ
!!LO:PB:g=original
4ryy	4ryy
=21-	=21-
8G#L 8E 8C# 8GG#\	4g# 4e 4c#/
8D#J 8DD#\	.
.	64qqf##X/LLLL
.	64qqg#/
.	64qqa#/
.	64qqg#/
.	64qqf##/
.	64qqg#/
.	64qqa#/
.	64qqg#/
.	64qqf##/
.	64qqa#/
.	64qqg#/
.	64qqf##/
32qqGGG#/	64qqg#/JJJJ
4G# 4D# 4GG#;>\	4g# 4d# 4B;>/
=22||	=22||
*M2/4	*M2/4
!	!LO:TX:a:t=P:problem=w źródle metrum zapisane przed podwójną kreską taktową
.	64qqd#/LLLL
.	64qqe/
.	64qqf##X/
.	64qqg#/
!LO:TX:t=P:problem=mixed beam	!
.	64qqa#/JJJJ
8GG#L 8GGG#/	8b'>/
8BJ 8G# 8D#\	8bL 8g# 8d#^^</
!LO:TX:t=P:problem=mixed beam	!
8AA#L 8AAA#/	8a#J 8g# 8c##X'</
8A#J 8G# 8C##X\	8a# 8g# 8c##^^</
=23	=23
.	32qqa#/LLL
.	32qqb/JJJ
20D#LL 20AA# 20DD#\	8cc#L 8f##X 8c#\
20C##X 20CC##X\	.
20D# 20DD#\	.
.	16b\L
20E 20EE\	.
.	16a#\JJ
20F##XJJ 20FF##X\	.
.	32qqa#/
32G#LLL 32D# 32GG#\	32g#LLL 32d# 32B/
32F##JJ 32FF##\	32f##/JJ
8.G#J 8.GG#\	8.g#/J
!	!LO:N:acc=n#
.	64qqfn#X\LLLL
.	64qqg#\
.	64qqa#\
.	64qqb\
.	64qqcc#\
.	64qqdd#\
.	64qqee\JJJJ
=24	=24
8D#L 8FF# 8BBB\	8ff# 8b 8f#'>\
8d#J 8B 8F#\	16ff#LL 16b 16f#\
.	16ff##XJJ 16f##X\
.	16qqg#\
8G#L 8BB 8EE\	8.gg#L 8.b 8.g#\
8eJ 8G#\	.
.	16ee\Jk
=25	=25
.	64qqe\LLLL
.	64qqa#\
.	64qqee\JJ
.	16qqdd#\JJ
8EL 8FF#\	8dd#L 8a# 8e\
8A#J 8E\	16cc##X\Jk
!!LO:LB:g=original
.	64qqee/
.	32dd#LLL 32b 32d#\
.	32cc##JJ 32b 32c##X\
32D#LLL 32FF# 32BBB\	8.dd#J 8.b 8.d#\
32C##X\JJ	.
8.BJ 8.F# 8.D#\	.
.	112b\LLLL
.	112cc##\
.	112dd#\
.	112ee\
.	112ff#\
.	112gg#\
.	112aa#\JJJJ
=26	=26
.	32qqbb 32qqgg#\
8B 8GG#\	8bb 8gg# 8g#\
.	16qqaa# 16qqff#/
8A# 8FF#\	8aa# 8ff# 8f#\
.	32qqgg# 32qqee/
8G# 8EE\	8gg# 8ee 8e\
.	32qqff##X 32qqdd#/
8F##X 8DD#\	8ff## 8dd# 8d#\
=27	=27
.	32qqe\
8G#L 8EE\	40gg#LLL 40ee 40e\
.	40ff##X\
.	40gg#\
.	40aa#\
.	40bb\JJJ
8g#J 8e 8G#\	48bb\LLL
.	48aa#\
.	48gg#\
.	48ff#X\
.	48ee\
.	48dd#\JJJ
8EL 8CC#\	48cc#LLL 48g# 48c#\
.	48b#X\
.	48cc#\
.	48dd#\
.	48ee\
.	48ff#\JJJ
8c#J 8E\	16.gg#LL 16.ee 16.g#\
.	32gg#\JJk
=28	=28
*^	*
4A# 4E/	8GG#\L	16.gg#LL 16.ee 16.g#\
.	.	32ff#\JJk
.	8FF#\J	16.ff#LL 16.dd# 16.f#\
.	.	32ee\JJk
8G#L 8EE\	4rEEyy	16.eeLL 16.cc# 16.e\
.	.	32dd#\JJk
8A#J 8E 8FF#\	.	16.dd#LL 16.a# 16.e\
.	.	32cc#\JJk
*v	*v	*
=29	=29
8D#L 8FF# 8BBB\	8bL 8f# 8d#\
.	32qqcc#/
8F#J 8BB 8FF#\	16.bL 16.f# 16.d#\
.	32a#\JJk
4B 4F# 4BB\	4b 4f# 4d#\
.	32qqd#\LLL
.	32qqe\
.	32qqf##X\
.	32qqg#\
.	32qqa#\JJJ
!!LO:LB:g=original
=30	=30
*k[f#c#g#d#a#]	*k[f#c#g#d#a#]
!LO:TX:t=P:problem=mixed beam	!
8GG#L 8GGG#/	16b'>\
.	16r
8BJ 8G# 8D#\	8bL 8g# 8d#\
!LO:TX:t=P:problem=mixed beam	!
8AA#L 8AAA#/	16a#Jk 16g# 16c##X'>\
.	16r
8A#J 8G# 8C##X\	8a# 8g# 8c##\
=31	=31
.	32qqa#/LLL
.	32qqb/JJJ
20D#LL 20AA# 20DD#/	8cc#L 8f##X 8c#\
20C##X 20CC##X/	.
20D# 20DD#/	.
.	16b\L
20E 20EE/	.
.	16a#\JJ
20F##XJJ 20FF##X/	.
.	32qqa#/
32G#LLL 32D# 32GG#\	32g#LLL 32d# 32B/
32F##JJ 32FF##\	32f##X/JJ
8.G#J 8.GG#\	8.g#/J
*kcancel	*kcancel
=32	=32
*k[b-e-a-]	*k[b-e-a-]
!	!LO:TX:a:t=P:problem=w źródle kreska tatkowa dopiero za tą grupą przednutek [problem with rendering]
.	64qqg\LLLL
.	64qqa-\
.	64qqb-\
.	64qqcc\
.	64qqdd\
.	64qqee-\
.	64qqff\JJJJ
8GL 8BB- 8EE-\	16ggKL 16ee- 16g\
.	16r
8e-J 8G\	8ggJ 8ee- 8g\
8FL 8AA-\	8.aa-L 8.cc 8.a-\
8cJ 8A-\	.
.	16gg\Jk
=33	=33
8DL 8BBB-\	16.ggLL 16.dd 16.a-\
.	32ff#X\JJk
8dJ 8A-\	16.ff#LL 16.dd 16.a-\
.	32gg\JJk
8GL 8BB- 8EE-\	4gg 4ee- 4g\
8e-J 8G\	.
=34	=34
.	16qqccc/
8cL 8E- 8AA-\	8cccL 8aa- 8cc\
.	32qqbb-/
8en 8G 8C\	8bb- 8gg 8b-\
.	32qqaa-/
8A- 8C 8FF\	8aa- 8ff 8a-\
.	32qqgg/
8cJ 8F 8AA-\	8ggJ 8ee- 8g\
!!LO:LB:g=original
=35	=35
.	32qqff/
8dL 8F 8BB-\	40ffLLL 40dd 40f\
.	40een\
.	40ff\
.	40gg\
.	40aa-\JJJ
40c\LL	8aa- 8dd 8a-\
40Bn\	.
40c\	.
40c#X\	.
40d\JJJ	.
40e-LLL 40B 40E-\	8ggL 8ee 8g\
40d\	.
40e-\	.
40en\	.
40f\JJJ	.
*clefG2	*
40f#XLLL 40e 40c#/	8cccJ 8ee 8cc\
40fn/	.
40f#X/	.
40g/	.
40a-/JJJ	.
=36	=36
*clefF4	*
4e- 4BB-\	32bb-LLL 32ee- 32an\
.	32b-'>\
.	32a-X'>\
.	32g'>\
.	32fn'>\
.	32e-X'>\
.	32d'>\
.	32c'>\JJJ
32B-LLL 32BB-'>\	8ddL 8a- 8d\
32Bn'>\	.
32B'>\	.
32c'>\	.
32c'>\	16.aa-L 16.dd 16.a-\
32c#X'>\	.
32c#'>\	.
32d'>\JJJ	32ddJJk 32a- 32d\
=37	=37
16.E-LL 16.BB- 16.EE-\	16.ee-LL 16.g 16.e-\
32DJJk 32C-X\	64ddLL 64a- 64d\
.	64ff\JJJJ
16.E-LL 16.BB- 16.EE-\	16.ee-LL 16.g 16.e-\
32DJJk 32C-\	64ddLL 64a- 64d\
.	64ff\JJJJ
4E- 4BB- 4EE-\	4ee- 4g 4e-\
=38||	=38||
.	32qqg-X/
8E-L 8BB- 8EE-\	8.gg-XL 8.b- 8.g-\
16e-L 16G-X\	.
16A-JJ 16BB- 16FF\	16ffJk 16b- 16f\
.	32qqff/
16G-LL 16BB- 16GG-X\	16ee-LL 16b- 16e-\
16FJ 16BB- 16FF\	16ddJ 16b- 16d\
8G-J 8BB- 8GG-\	8ee-J 8b- 8e-\
!!LO:LB:g=original
=39	=39
.	32qqcc-X/
8A-L 8E- 8AA-\	8.ccc-XL 8.ee- 8.cc-\
16a-L 16c-X\	.
16B-JJ 16E- 16BB-\	16bb-Jk 16ee- 16b-\
.	32qqbb-/
8c-L 8F 8C-X\	16aa-LL 16dd-X 16a-\
.	16ggJ 16g\
8fJ 8d-X 8c-\	8aa-J 8dd- 8a-\
=40	=40
8B-L 8G-X 8BB-\	16bb-KL 16gg-X 16b-\
.	8gg- 8b- 8g-X\
8d-XJ 8B-\	.
.	16gg-Jk 16b- 16g-\
8c-XL 8Dn 8AA-\	72ffLLLL 72cc-X 72f\
.	72gg-\
.	72ff\
.	72een\
.	72ff\
.	72gg-\
.	72bb- 72ff 72cc-\
.	72aa-\
.	72gg-\
8dnJ 8c-\	72ff\
.	72gg-\
.	72ff\
.	72ee\
.	72dd\
.	72ee-X\
.	72een\
.	72ff\
.	72gg-\JJJJ
=41	=41
16B- 16D-X 16GG-X\	16gg-XKL 16b- 16g-X\
32D-LLL 32DD-X\	8ff 8cc-X 8f\
32Dn 32DDn\	.
32D 32DD\	.
32F 32FF\	.
32F 32FF\	16gg-Jk 16g-\
32G-XJJJ 32GG-\	.
8G-L 8BB- 8GG-/	4gg- 4b- 4g-\
8g-XJ 8B-/	.
=42	=42
8B-L 8F 8BB-\	8.ddd-XL 8.ff 8.dd-X\
8fJ 8d-X\	.
.	16cccJk 16cc\
.	32qqccc/
8G-XL 8BB- 8GG-X\	16bb-LL 16gg-X 16b-\
.	16aanJ 16an\
8g-XJ 8B-\	8bb-J 8gg- 8b-\
!!LO:LB:g=original
=43	=43
8F-XL 8FF-X\	8.fff-XL 8.ggn 8.ff-X\
8f-XJ 8G\	.
.	16eee-Jk 16ee-\
.	32qqeee-/
8D-XL 8DD-X\	16ddd-XLL 16gg 16dd-X\
.	16cccJ 16cc\
8f-J 8G\	8ddd-J 8gg 8dd-\
=44	=44
!LO:TX:t=P:problem=mixed beam	!
8C-XL 8CC-X/	16eee-KL 16aa- 16ee-\
.	8aa- 8ee- 8a-\
8e-J 8c-X\	.
.	16aa-Jk 16ee- 16a-\
.	32qqg\
8d-XL 8F-X 8BB-\	48ggLLL 48dd-X 48g\
.	48aa-\
.	48gg\
.	48ff#X\
.	48gg\
.	48aa-\JJJ
8d-J 8F-\	72ccc-XLLLL 72gg 72dd-\
.	72bb-\
.	72aa-\
.	72gg\
.	72aa-\
.	72gg\
.	72ff#\
.	72gg\
.	72aa-\JJJJ
=45	=45
8c-X 8E- 8AA-\	8aa- 8cc-X\
.	32qqccc-X 32qqdd 32qqcc-\
8c- 8Dn 8AA-\	8ccc- 8dd 8cc-\
.	32qqbb- 32qqee- 32qqb-\
8B- 8E- 8GG-X\	8bb- 8ee- 8b-\
.	32qqaa- 32qqcc- 32qqa-\
8A- 8C-X 8FF\	8aa- 8cc- 8a-\
.	16qqg-X\
=46	=46
8G-XL 8BB- 8EE-\	32gg-XLLL 32b- 32g-\
.	32f'>\
.	32e-'>\
.	32d'>\
8G-J 8E-\	32ee- 32g- 32e-\
.	32d-X'>\
.	32c-X'>\
.	32B-'>\JJJ
64FLLLL 64C 64FF\	8anL 8e- 8An\
64En\	.
64F\	.
64G-\	.
64An\	.
64G-\	.
64A\	.
64B-\JJJJ	.
.	64qqgg-\
32c-XLLL 32BB-\	16.gg-L 16.a-X 16.d-\
32C-X\	.
32C-\	.
32D\JJJ	32ff\JJk
!!LO:PB:g=original
=47	=47
16B- 16E-\	16ee-KL 16g 16e-\
32BB-LLL 32BBB-/	8dd 8a- 8d\
32C-X 32CC-X/	.
32C- 32CC-/	.
32D 32DD/	.
32D 32DD/	16ee-Jk 16e-\
32E-JJJ 32EE-/	.
!	!LO:TX:b:t=P:problem=w źródle strzałka wskazująca pion
!LO:TX:t=P:problem=mixed beam	!
8E-L 8BB- 8EE-/	4ee- 4g 4e-\
8B-J 8E-\	.
=48||	=48||
.	32qqg\
8G 8BB- 8EE-\	8bb- 8ee- 8g\
.	32qqaa-/
8A- 8D 8FF\	8aa- 8dd 8f\
.	32qqgg/
8B- 8E- 8GG\	8gg 8b- 8e-\
.	32qqff/
8c-X 8D 8AA-\	8ff 8cc-X 8d\
=49	=49
.	32qqee-/
8B- 8E- 8GG\	8ee-L 8b- 8e-\
.	64qqdd\LLLL
.	64qqee-\
.	64qqff\
.	64qqgg\
.	64qqaan\
.	64qqbb-\
.	64qqccc\
.	64qqddd\JJJJ
8an 8e- 8An 8E- 8FF\	16.eee-L 16.aan 16.ee-\
.	32dddJJk 32dd\
64qqBBB-\LLLL	.
64qqD\JJJJ	.
4b- 4d 4B- 4D\	4ddd 4bb- 4dd\
*kcancel	*kcancel
=50	=50
*k[f#c#g#d#a#]	*k[f#c#g#d#a#]
!	!LO:TX:a:t=P:problem=w źródle zmiana znaków przykluczowych przed kreską taktową
.	32qqdddn/
8C#L 8CC#\	32ccc# 32cc#\
.	32r
.	16r
8f##XJ 8c# 8F##X\	8ccc# 8ff##X 8cc#\
!LO:TX:t=P:problem=mixed beam	!
8D#L 8DD#/	32ccc#LLL 32ff## 32cc#\
.	32bb#X 32b#X\
.	32ccc# 32cc#\
.	32ddd#X 32dd#\
8f##J 8c# 8F##\	32eee 32ee\
.	32ddd# 32dd#\
.	32ccc# 32cc#\
.	32bb#JJJ 32b#\
!!LO:LB:g=original
=51	=51
32c#LLL 32D# 32GG#\	8ccc#L 8gg# 8cc#\
32d#\	.
32e\	.
32f##X\JJJ	.
64f#XLLLL 64G#\	8b#XJ 8g# 8B#X\
64A#\	.
64G#\	.
64F##X\	.
64G#\	.
64F#X\	.
64E\	.
64D#\JJJJ	.
8EL 8CC#\	8.cc#L 8.g# 8.c#\
8eJ 8c# 8G#\	.
.	16ccc#Jk 16cc#\
=52	=52
8c#L 8D# 8AA#\	(>16ccc#LL 16ff##X 16cc#\
.	16ddd#JJ 16dd#\)
8cc#J 8f##X 8c#\	(>16ddd#LL 16ff## 16dd#\
.	16eeeJJ 16ee\)
8F##XL 8DD#\	52eeeLLL 52ff##\
.	52ddd#\
.	52eee\
.	52fff#\
.	52eee\
.	52ddd#\
.	52ccc#\
8cc#J 8f## 8c#\	.
.	52bb#X\
.	52ccc#\
.	52ddd#\
.	52ccc#\
.	52bbn\
.	52aa#\JJJ
=53	=53
8D#L 8GG#\	32gg#LLL 32dd# 32g#\
.	32f##X\
.	32g#\
.	32a#\JJJ
8d#J 8B 8G# 8D#\	56gg#LLL 56dd# 56b\
.	56b\
.	56b\
.	56b\
.	56b\
.	56b\
.	56b\JJJ
8C##XL 8EE#X\	56gg#LLL 56cc##X 56b\
.	56a#\
.	56cc#X\
.	56b\
.	56a#\
.	56g#\
.	56f##X\
8c##XJ 8G# 8AA#\	56g#\
.	56a#\
.	56g#\
.	56f##\
.	56f#X\
.	56e#X\
.	56en\JJJ
=54	=54
8DD#\L	128d#\LLLLL
.	128e\
.	128d#\
.	128c##X\
.	128d#\
.	128e\
.	128d#\
.	128c##\
.	128d#\
.	128e\
.	128e#X\
.	128f#\
.	128f##X\
.	128g#\
.	128a#\
.	128a#X\JJJJJ
!!LO:LB:g=original
8d# 8B 8G# 8D#\J	72b\LLLL
.	72b\
.	72b\
.	72b\
.	72b\
.	72b\
.	72b\
.	72b\
.	72b\JJJJ
32D#LLL 32DD#\	8bL 8f##X 8c##\
32E\	.
32F##X\	.
32G#\	.
32A#\	8aa#J 8a#\
32B\	.
32c#\	.
32d#\JJJ	.
=55	=55
8eL 8c# 8G#\	8gg#L 8cc# 8g#\
8D#J 8DD#\	88ff##XLLL 88cc# 88f##X\
.	88gg#\
.	88aa#\
.	88gg#\
.	88ff##\
.	88aa#\
.	88gg#\
.	88ff##\
.	88aa#\
.	88gg#\
.	88ff##\JJJJ
32qqGGG#/	64qqgg# 64qqb 64qqg#\
4d# 4B 4G# 4D#\	4gg# 4b 4g#\
*kcancel	*kcancel
=56||	=56||
*k[b-e-a-]	*k[b-e-a-]
!	!LO:TX:a:t=P:problem=w źródle zmiana znaków przykluczowych przed kreską taktową
8E-L 8BB- 8EE-\	8.gg-XL 8.b- 8.g-X\
16e-L 16G-X\	.
16A-JJ 16BB- 16FF\	16ffJk 16f\
.	32qqff/
16G-LL 16BB- 16GG-X\	16ee-LL 16b- 16e-\
16FJ 16BB- 16FF\	16ddJ 16d\
8G-J 8BB- 8GG-\	8ee-J 8b- 8e-\
=57	=57
.	32qqcc-X/
8A-L 8E- 8AA-\	8.ccc-XL 8.ee- 8.cc-\
16a-L 16c-X\	.
16B-JJ 16E- 16BB-\	16bb-Jk 16ee- 16b-\
.	32qqbb-/
8c-L 8F 8C-X\	16aa-LL 16dd-X 16a-\
.	16ggJ 16g\
8fJ 8d 8c-\	8aa-J 8dd- 8a-\
!!LO:LB:g=original
=58	=58
8B-L 8G-X 8BB-\	16bb-KL 16gg-X 16b-\
.	8gg- 8b- 8g-X\
8d-XJ 8B-\	.
.	16gg-Jk 16b- 16g-\
8c-XL 8D 8AA-\	72ffLLLL 72cc-X 72f\
.	72gg-\
.	72ff\
.	72een\
.	72ff\
.	72gg-\
.	72bb- 72ff 72cc-\
.	72aa-\
.	72gg-\
8dnJ 8c-\	72ff\
.	72gg-\
.	72ff\
.	72ee-X\
.	72dd\
.	72ee-\
.	72een\
.	72ff\
.	72gg-\JJJJ
=59	=59
16B- 16D-X 16GG-X\	16gg-XKL 16b- 16g-X\
32D-LLL 32DD-X/	8ff 8cc-X 8f\
32Dn 32DDn/	.
32D 32DD/	.
32F 32FF/	.
32F 32FF/	16gg-Jk 16g-\
32G-XJJJ 32GG-/	.
8G-L 8BB- 8GG-\	4gg- 4b- 4g-\
8g-XJ 8B-\	.
=60	=60
8B-L 8F 8BB-\	8.ddd-XL 8.ff 8.dd-X\
8fJ 8d-X\	.
.	16cccJk 16cc\
.	32qqccc/
8G-XL 8BB- 8GG-X\	16bb-LL 16gg 16b-\
.	16aanJ 16an\
8g-XJ 8B-\	8bb-J 8gg 8b-\
=61	=61
8F-XL 8FF-X\	8.fff-XL 8.gg 8.ff-X\
8f-XJ 8G\	.
.	16eee-Jk 16ee-\
!LO:TX:t=P:problem=mixed beam	!
.	32qqeee-/
8D-XL 8DD-X/	16ddd-XLL 16gg 16dd-X\
.	16cccJ 16cc\
8f-J 8G\	8ddd-J 8gg 8dd-\
!!LO:LB:g=original
=62	=62
!LO:TX:t=P:problem=mixed beam	!
8C-XL 8CC-X/	16eee-KL 16aa- 16ee-\
.	8aa- 8ee- 8a-\
8e-J 8A-\	.
.	16aa-Jk 16ee- 16a-\
.	32qqg\
8d-XL 8F-X 8BB-\	48ggLLL 48dd-X 48g\
.	48aa-\
.	48gg\
.	48ff#X\
.	48gg\
.	48aa-\JJJ
8d-J 8F-\	72ccc-XLLLL 72gg 72dd-\
.	72bb-\
.	72aa-\
.	72gg\
.	72aa-\
.	72gg\
.	72ff#\
.	72gg\
.	72aa-\JJJJ
=63	=63
8c-X 8E- 8AA-\	8aa- 8cc-X\
.	32qqccc-X 32qqdd 32qqcc-\
8c- 8D 8AA-\	8ccc- 8dd 8cc-\
.	32qqbb- 32qqee- 32qqb-\
8B- 8E- 8GG-X\	8bb- 8ee- 8b-\
.	32qqaa- 32qqcc- 32qqa-\
8A- 8C-X 8FF\	8aa- 8cc- 8a-\
=64	=64
.	16qqg-X\
8G-XL 8BB- 8EE-\	32gg-XLLL 32b- 32g-\
.	32f\
.	32e-\
.	32d\JJJ
8G-J 8E-\	32ee-LLL 32g- 32e-\
.	32d-X\
.	32c-X\
.	32B-\JJJ
64FLLLL 64C 64FF\	8anL 8e- 8An\
64En\	.
64F\	.
64G-X\	.
64An\	.
64G-\	.
64A\	.
64B-\JJJJ	.
.	32qqgg-\
32c-XLLL 32BB-\	16.gg-L 16.a-X 16.d-\
32C-X\	.
32C-\	.
32D\JJJ	32ff\JJk
=65	=65
16B- 16E-\	16ee-KL 16g 16e-\
32BB-LLL 32BBB-/	8dd 8a- 8d\
32C-X 32CC-X/	.
32C- 32CC-/	.
32D 32DD/	.
32D 32DD/	16ee-Jk 16e-\
32E-JJJ 32EE-/	.
8E-L 8BB- 8EE-\	4ee- 4g 4e-\
8B-J 8E-\	.
!!LO:LB:g=original
=66||	=66||
.	32qqg\
8G 8BB- 8EE-\	8bb- 8ee- 8g\
.	32qqaa-/
8A- 8D 8FF\	8aa- 8dd 8f\
.	32qqgg/
8B- 8E- 8GG\	8gg 8b- 8e-\
.	32qqff/
8c-X 8D 8AA-\	8ff 8cc-X 8d\
=67	=67
.	32qqee-/
8B- 8E- 8GG\	8ee-L 8b- 8e-\
.	64qqdd\LLLL
.	64qqee-\
.	64qqff\
.	64qqgg\
.	64qqaan\
32qqFF\LLL	64qqbb-\
32qqE-\	64qqccc\
32qqAn\JJJ	64qqddd\JJJJ
8a- 8e- 8Any\	16.eee-L 16.aan 16.ee-\
.	32dddJJk 32dd\
64qqBBB-\LLLL	.
64qqD\JJJJ	.
4b- 4d 4B- 4D\	4ddd 4bb- 4dd\
*kcancel	*kcancel
=68	=68
*k[f#c#g#d#a#]	*k[f#c#g#d#a#]
!	!LO:TX:a:t=P:problem=w źródle zmiana znaków przykluczowych przed kreską taktową
!LO:TX:t=P:problem=mixed beam	!
.	32qqdddn/
8C#L 8CC#/	32ccc# 32cc#\
.	32r
.	16r
8f##XJ 8c# 8F##X\	8ccc# 8ff##X 8cc#\
!LO:TX:t=P:problem=mixed beam	!
8D#L 8DD#/	32ccc#LLL 32ff## 32cc#\
.	32bb#X 32b#X\
.	32ccc# 32cc#\
.	32ddd#yJJJ 32dd#\
8f##J 8c# 8F##\	32eeeLLL 32ee\
.	32ddd# 32dd#\
.	32ccc# 32cc#\
.	32bb#JJJ 32b#\
=69	=69
32c#LLL 32D# 32GG#\	8ccc#L 8gg# 8cc#\
32d#\	.
32e\	.
32f##X\JJJ	.
64f#XLLLL 64G#\	8b#XJ 8g# 8B#X\
64A#\	.
64G#\	.
64F##X\	.
64G#\	.
64F#X\	.
64E\	.
64D#\JJJJ	.
8EL 8CC#\	8.cc#L 8.g# 8.c#\
8eJ 8c# 8G#\	.
.	16ccc#Jk 16cc#\
!!LO:PB:g=original
=70	=70
8c#L 8D# 8AA#\	(>16ccc#LL 16ff##X 16cc#\
.	16ddd#JJ 16dd#\)
8cc#J 8f##X 8c#\	(>16ddd#LL 16ff## 16dd#\
.	16eeeJJ 16ee\)
8F##XL 8DD#\	52eeeLLL 52ff##\
.	52ddd#\
.	52fff#\
.	52eee\
.	52ddd#\
.	52ccc#\
.	52bb#X\
8cc#J 8f## 8c#\	.
.	52ccc#\
.	52ddd#\
.	52ccc#\
.	52cccn\
.	52bb#\
.	52aa#\JJJ
=71	=71
8D#L 8GG#\	32gg#LLL 32dd# 32g#\
.	32f##X\
.	32g#\
.	32a#\JJJ
8d#J 8B 8G# 8D#\	56gg#LLL 56dd# 56b\
.	56b\
.	56b\
.	56b\
.	56b\
.	56b\
.	56b\JJJ
8C##XL 8EE#X\	56gg#LLL 56cc##X 56b\
.	56a#\
.	56cc#X\
.	56b\
.	56a#\
.	56g#\
.	56f##X\
8c##XJ 8G# 8AA#\	56g#\
.	56a#\
.	56g#\
.	56f##\
!	!LO:N:acc=n#
.	56fn#X\
.	56e#X\
.	56en\JJJ
=72	=72
8D#L 8DD#\	96d#\LLLL
.	96e\
.	96d#\
.	96c##X\
.	96d#\
.	96e\
.	96d#\
.	96c##\
.	96d#\
.	96e\
.	96e#X\
.	96f#\
8d#J 8B 8G# 8D#\	96gn\
.	96g#X\
.	96an\
.	96a#X\
.	96b\
.	96b\
.	96b\
.	96b\
.	96b\
.	96b\
.	96b\
.	96b\JJJJ
32D#LLL 32DD#'>\	8.bL 8.f##X 8.c##\
32E'>\	.
32F##X'>\	.
32G#'>\	.
32A#'>\	.
32B'>\	.
32c#'>\	16aa#Jk 16a#\
32d#'>\JJJ	.
!!LO:LB:g=original
=73	=73
8eL 8c# 8G#\	8gg# 8cc# 8g#\
8D#J 8DD#\	88ff##XLLLL 88cc# 88f##X\
.	88gg#\
.	88aa#\
.	88gg#\
.	88ff##\
.	88aa#\
.	88gg#\
.	88ff##\
.	88aa#\
.	88gg#\
.	88ff##\JJJJ
32qqGGG#/	32qqgg#/
4d# 4B 4G# 4D#;>\	4gg# 4b 4g#;>\
=74||	=74||
!	!LO:TX:a:Bi:t=Trio.
8D#\L	8dd#\
8d#J 8F##X\	8r
8C##X\L	8cc##X\
8c##XJ 8F##\	8r
=75	=75
8BB\L	8b\
8BJ 8C##X\	8r
8AA#\L	8a#\
8A#J 8C##X\	8r
=76	=76
8GG#\L	8g#\
8BJ 8D#\	4g#\
8AA#\L	.
8BJ 8D#\	8f##X\
=77	=77
.	16qqa#/
8BB\L	8g#\L
8BJ 8D#\	8f##X\J
8GG#\L	4g#\
8BJ 8D#\	.
=78	=78
8G#\L	8gg#\
8g#J 8B#X\	8r
8F##X\L	8ff##X\
8f##XJ 8B#\	8r
!!LO:LB:g=original
=79	=79
8En\L	8ee\
8enJ 8F##X\	8r
8D#\L	8dd#\
8d#J 8F##\	8r
=80	=80
8C#\L	8cc#\
8eJ 8G#\	4cc#\
8C#\L	.
8eJ 8G#\	8b#X\
=81	=81
.	16qqdd#/
8E\L	8cc#\L
8eJ 8G#\	8b#X\J
8C#\L	4cc#\
8eJ 8G#\	.
=82	=82
.	32qqcc#/
!LO:TX:t=P:problem=mixed beam	!
8AA#L 8AAA#/	8ee\L
8F#\J	8cc#J 8f# 8A#\
!LO:TX:t=P:problem=mixed beam	!
8FF#L 8FFF#/	4cc# 4f# 4A#\
8F#\J	.
=83	=83
.	32qqb/
!LO:TX:t=P:problem=mixed beam	!
8BBL 8BBB/	8dd#\L
8F#\J	8bJ 8f# 8B\
!LO:TX:t=P:problem=mixed beam	!
8FF#L 8FFF#/	4b 4f# 4B\
8F#\J	.
=84	=84
8AA#\L	8r
8eJ 8A# 8F#\	8cc#M>\L
8FF#\L	8b#X\
8eJ 8A# 8F#\	8cc#\J
=85	=85
8BB\L	8ff# 8dd#\
8d#J 8F#\	8r
8FF#\L	4ff# 4dd#\
8d#J 8F#\	.
!!LO:LB:g=original
=86	=86
.	32qqcc#/
!LO:TX:t=P:problem=mixed beam	!
8AA#L 8AAA#/	8ee\L
8F#\J	8cc#J 8f# 8A#\
!LO:TX:t=P:problem=mixed beam	!
8FF#L 8FFF#/	4cc# 4f# 4A#\
8F#\J	.
=87	=87
.	32qqb/
!LO:TX:t=P:problem=mixed beam	!
8BBL 8BBB/	8dd#\L
8F#\J	8bJ 8f# 8B\
!LO:TX:t=P:problem=mixed beam	!
8FF#L 8FFF#/	4b 4f# 4B\
8F#\J	.
=88	=88
8DD#\L	8r
8c#J 8F##X\	8a#\L
8D#\L	8dd#\
8c#J 8F##\	8d#\J
=89	=89
*2\right	*2\right
2B 2D# 2GG#\	2g#\
=90||	=90||
8D#\L	16dd#\LL
.	16cc##X\
8d#J 8F##X\	16dd#\
.	16ee\
8C##X\L	16cc##\
.	16b\
8c##XJ 8F##\	16cc##\
!	!LO:TX:t=P:problem=cross-measure beam
.	16dd#\JJ
=91	=91
8BB\L	16b\LL
.	16a#\
8BJ 8C##X\	16b\
.	16cc##X\
8AA#\L	16a#\
.	16g##X\
8A#J 8C##\	16a#\
.	16b\JJ
=92	=92
8GG#\L	8g#\
8BJ 8D#\	4g#\
8AA#\L	.
8BJ 8D#\	8f##X\
=93	=93
.	32qqa#/
8BB\L	8g#\L
8BJ 8D#\	8f##X\J
8GG#\L	4g#\
8BJ 8D#\	.
!!LO:LB:g=original
=94	=94
8G#\L	16gg#\LL
.	16ff##X\
8g#J 8B#X\	16gg#\
.	16aan\
8F##X\L	16ff##\
.	16ee\
8f##XJ 8B#\	16ff##\
!	!LO:TX:t=P:problem=cross-measure beam
.	16gg#\JJ
=95	=95
8E\L	16ee\LL
.	16dd#\
8eJ 8F##X\	16ee\
.	16ff##X\
8D#\L	16dd#\
.	16cc##X\
8d#J 8F##\	16dd#\
.	16ee\JJ
=96	=96
8C#\L	8cc#X\
8eJ 8G#\	4cc#\
8C#\L	.
8eJ 8G#\	8b#X\
=97	=97
.	32qqdd#/
8E\L	8cc#\L
8eJ 8G#\	8b#X\J
8C#\L	4cc#\
8eJ 8G#\	.
=98	=98
.	32qqcc#/
!LO:TX:t=P:problem=mixed beam	!
8AA#L 8AAA#/	8ee/L
8F#\J	8cc#J 8f# 8A#/
!LO:TX:t=P:problem=mixed beam	!
8FF#L 8FFF#/	4cc# 4f# 4A#/
8F#\J	.
=99	=99
.	32qqb/
!LO:TX:t=P:problem=mixed beam	!
8BBL 8BBB/	8dd#/L
8F#\J	8bJ 8f# 8B/
!LO:TX:t=P:problem=mixed beam	!
8FF#L 8FFF#/	4b 4f# 4B/
8F#\J	.
=100	=100
8AA#\L	8r
8eJ 8A# 8F#\	8cc#M>\L
8FF#\L	8b#X\
8eJ 8A# 8F#\	8cc#\J
!!LO:LB:g=original
=101	=101
8BB\L	8ff# 8dd#\
8d#J 8F#\	8r
8FF#\L	4ff# 4dd#\
8d#J 8F#\	.
=102	=102
.	32qqcc#/
!LO:TX:t=P:problem=mixed beam	!
8AA#L 8AAA#/	8ee\L
8F#\J	8cc#J 8f# 8A#\
!LO:TX:t=P:problem=mixed beam	!
8FF#L 8FFF#/	4cc# 4f# 4A#\
8F#\J	.
=103	=103
.	32qqb/
!LO:TX:t=P:problem=mixed beam	!
8BBL 8BBB/	8dd#\L
8F#\J	8bJ 8f# 8B\
!LO:TX:t=P:problem=mixed beam	!
8FF#L 8FFF#/	4b 4f# 4B\
8F#\J	.
=104	=104
8DD#\L	8r
8c# 8F##X\	8a#\L
8D#\	8dd#\
8c#J 8F##\	8d#\J
=105	=105
2B 2D# 2GG#\	2g#\
*kcancel	*kcancel
=106||	=106||
*k[b-e-a-]	*k[b-e-a-]
8E- 8BB- 8EE-\	8g 8e- 8G/
8r	8r
4B- 4E- 4BB-\	4g 4e- 4G/
=107	=107
8AA- 8AAA-/	8f 8c 8F/
8r	8r
4c 4A- 4C\	4f 4c 4F/
=108	=108
8BB- 8BBB-/	8a- 8d 8A-/
8r	8r
4d 4c-X 4D\	4a- 4d 4A-/
!!LO:PB:g=original
=109	=109
8E- 8EE-\	8g 8e- 8G/
8r	8r
4e- 4B- 4E-\	4g 4e- 4G/
=110	=110
8CL 8CC\	8cc 8g 8e- 8c/
8gJ 8e- 8c\	4cc\
8G\L	.
8gJ 8e- 8c\	16bn\LL
.	16cc\JJ
=111	=111
8G\L	16dd\LL
.	16cc\
8gJ 8e- 8c\	16bn\
.	16cc\
8G\L	16dd\
.	16cc\
8gJ 8e- 8c\	16bn\
.	16cc\JJ
=112	=112
8C\L	8ee-\L
8f 8Bn 8A-\	16ee-\L
.	16dd\
8f 8B 8A-\	16dd\
.	16cc\
8fJ 8B 8A-\	16cc\
.	16bn\JJ
=113	=113
8e-L 8c\	16dd\LL
.	16cc\
8fJ 8G\	16cc\
.	16bn\JJ
4e- 4c\	4cc\
=114	=114
8E- 8EE-\	8g 8e- 8G/
8r	8r
4B- 4E- 4BB-\	4g 4e- 4G/
=115	=115
8AA- 8AAA-/	8f 8c 8F/
8r	8r
4c 4A- 4C\	4f 4c 4F/
=116	=116
8BB- 8BBB-/	8a- 8d 8A-/
8r	8r
4d 4c-X 4D\	4a- 4d 4A-/
!!LO:LB:g=original
=117	=117
8E- 8EE-\	8g 8e- 8G/
8r	8r
4e- 4B- 4E-\	4g 4e- 4G/
=118	=118
8CL 8CC\	8ee- 8cc 8g 8e-\
*clefG2	*
8ccJ 8g 8e-\	4ee-\
8G\L	.
8ccJ 8g 8e-\	16dd\LL
.	16ee-\JJ
=119	=119
8G\L	16ff\LL
.	16ee-\
8ccJ 8g 8e-\	16dd\
.	16ee-\
8G\L	16ff\
.	16ee-\
8ccJ 8g 8e-\	16dd\
.	16ee-\JJ
=120	=120
!LO:TX:t=P:problem=mixed beam	!
8A-/L	8gg\L
8cc-XJ 8f 8e-\	16gg\L
.	16ff\
8B-/L	16ff\
.	16ee-\
8b-J 8a- 8d/	16ee-\
.	16dd\JJ
=121	=121
8gL 8e-/	16ff\LL
.	16ee-\
8a-J 8B-/	16ee-\
.	16dd\JJ
4g 4e-/	4ee-\
*clefF4	*
=122||	=122||
8E-\L	8ggL 8ee-\
8g 8B-\	8ff#XJ 8dd\
8b- 8e-\	4gg 4ee-\
8gJ 8B-\	.
=123	=123
8AA-\L	8ccL 8a-\
8e- 8A-\	8bnJ 8g\
8a- 8c\	4cc 4a-\
8e-J 8A-\	.
=124	=124
8BB-\L	4dd 4a-\
8d 8A-\	.
8a- 8B-\	4aa- 4dd\
8dJ 8A-\	.
=125	=125
8EE-\L	2gg 2ee-\
8e- 8G\	.
8g 8B-\	.
8e-J 8G\	.
!!LO:LB:g=original
=126	=126
8C\L	8ee-L 8cc\
8e- 8G\	8ddJ 8bn\
8g 8c\	4ee- 4cc\
8e-J 8G\	.
=127	=127
8AA-\L	8ccL 8a-\
8c 8F#X\	8bnJ 8g\
8f#X 8A-X\	4cc 4a-\
8cJ 8F#\	.
=128	=128
8GG\L	8bn 8g\
8B- 8Fn\	4gg 4g\
8d 8G\	.
8B-J 8F\	8b 8g\
=129	=129
8CL 8CC\	16ddLL 16g\
.	16cc\
8cJ 8G 8E-\	16cc 16g\
.	16bn\JJ
4c 4G 4E-\	4cc 4g\
=130	=130
8E-\L	8ggL 8ee-\
8g 8B-\	8ff#XJ 8dd\
8b- 8e-\	4gg 4ee-\
8gJ 8B-\	.
=131	=131
8AA-\L	8ccL 8a-\
8e- 8A-\	8bnJ 8g\
8a- 8c\	4cc 4a-\
8e-J 8A-\	.
=132	=132
8BB-\L	4dd 4a-\
8d 8A-\	.
8a- 8B-\	4aa- 4dd\
8dJ 8A-\	.
=133	=133
8EE-\L	2gg 2ee-\
8e- 8G\	.
8g 8B-\	.
8e-J 8G\	.
=134	=134
8C\L	8ee-L 8cc\
8e- 8G\	8ddJ 8bn\
8g 8c\	4ee- 4cc\
8e-J 8G\	.
!!LO:LB:g=original
=135	=135
8AA-\L	8ccL 8a-\
8c 8F#X\	8bnJ 8g\
8f#X 8A-\	4cc 4a-\
8cJ 8F#\	.
=136	=136
8GG\L	8bn 8g\
8B- 8Fn\	4gg 4g\
8d 8G\	.
8B-J 8F\	8b 8g\
=137	=137
!LO:TX:t=P:problem=mixed beam	!
8CL 8CC/	16ddLL 16g\
.	16cc\
8cJ 8G 8E-\	16cc 16g\
.	16bn\JJ
4c 4G 4E-\	4cc 4g\
*kcancel	*kcancel
=138||	=138||
*k[f#c#g#d#a#]	*k[f#c#g#d#a#]
8D#\L	8dd#\
8d#J 8F##X\	8r
8C##X\L	8cc##X\
8c##XJ 8F##\	8r
=139	=139
8BB\L	8b\
8BJ 8C##X\	8r
8AA#\L	8a#\
8A#J 8C##X\	8r
=140	=140
8GG#\L	8g#\
8BJ 8D#\	4g#\
8AA#\L	.
8BJ 8D#\	8f##X\
=141	=141
.	16qqa#/
8BB\L	8g#\L
8BJ 8D#\	8f##X\J
8GG#\L	4g#\
8BJ 8D#\	.
!!LO:LB:g=original
=142	=142
8G#\L	16gg#\LL
.	16ff##X\
8g#J 8B#X\	16gg#\
.	16aa#\
8F##X\L	16ff##\
.	16ee\
8f##XJ 8B#\	16ff##\
!	!LO:TX:t=P:problem=cross-measure beam
.	16gg#\JJ
=143	=143
8E\L	16ee\LL
.	16dd#\
8eJ 8F##X\	16ee\
.	16ff##X\
8D#\L	16dd#\
.	16cc##X\
8d#J 8F##\	16dd#\
.	16ee\JJ
=144	=144
8C#\L	8cc#\
8eJ 8G#\	4cc#\
8D#\L	.
8eJ 8G#\	8b#X\
=145	=145
.	32qqdd#/
8E\L	8cc#\L
8eJ 8G#\	8b#X\J
8C#\L	4cc#\
8eJ 8G#\	.
=146	=146
.	32qqcc#/
!LO:TX:t=P:problem=mixed beam	!
8AA#L 8AAA#/	8ee/L
8F#\J	8cc#J 8f# 8A#/
!LO:TX:t=P:problem=mixed beam	!
8FF#L 8FFF#/	4cc# 4f# 4A#/
8F#\J	.
=147	=147
.	32qqb/
!LO:TX:t=P:problem=mixed beam	!
8BBL 8BBB/	8dd#/L
8F#\J	8bJ 8f# 8B/
!LO:TX:t=P:problem=mixed beam	!
8FF#L 8FFF#/	4b 4f# 4B/
8F#\J	.
=148	=148
8AA#\L	8r
8eJ 8A# 8F#\	8cc#M>\L
8FF#\L	8b#X\
8eJ 8A# 8F#\	8cc#\J
=149	=149
8BB\L	8ff# 8dd#\
8d#J 8F#\	8r
8FF#\L	4ff# 4dd#\
8d#J 8F#\	.
!!LO:LB:g=original
=150	=150
.	32qqcc#/
8AA#L 8AAA#\	8ee\L
8F#\J	8cc#J 8f# 8A#\
8FF#L 8FFF#\	4cc# 4f# 4A#\
8F#\J	.
=151	=151
.	32qqb/
8BBL 8BBB\	8dd#\L
8F#\J	8bJ 8f# 8B\
8FF#L 8FFF#\	4b 4f# 4B\
8F#\J	.
=152	=152
8DD#\L	8r
8c# 8F##X\	8a#\L
8D#\	8dd#\
8c#J 8F##\	8d#\J
=153	=153
2B 2G#\	2g#\
=154!|:	=154!|:
*>B	*>B
4.D# 4.FF# 4.BBB\	4.b 4.d# 4.B\
8B 8D#\	8gn 8d#/
=155	=155
8BL 8D#\	8f#L 8d#/
8B 8F#\	8b 8d#/
8BJ 8BB\	8dd#J 8d#/
8r	8r
=156	=156
4.D# 4.FF# 4.BBB\	4.b 4.d# 4.B/
8B 8D#\	8gn 8d#/
=157	=157
8BL 8D#\	8f#L 8d#/
8B 8F#\	8b 8d#/
8BJ 8BB\	8dd#J 8d#/
8r	8r
=158	=158
8AA#\L	8f# 8e/
8A#J 8F#\	4ee 4e\
8FF#\L	.
8A#J 8F#\	8dd#\
!!LO:PB:g=original
=159	=159
8AA#\L	16dd#\LL
.	16cc#\
8A#J 8F#\	16cc#\
.	16b#X\JJ
8FF#\L	4cc#\
8A#J 8F#\	.
=160	=160
8BBB\L	8f# 8d#\
8BJ 8F#\	4dd# 4d#\
8BB\L	.
8BJ 8F#\	8cc#\
=161	=161
8D#\L	16cc#\LL
.	16b\
8BJ 8F#\	16b\
.	16a#X\JJ
8BB\L	4b\
8BJ 8F#\	.
=162	=162
4.D# 4.FF# 4.BBB/	4.b 4.d# 4.B/
8B 8D#\	8gn 8d#/
=163	=163
8BL 8D#\	8f#L 8d#/
8B 8F#\	8b 8d#/
8BJ 8BB\	8dd#J 8d#/
8r	8r
=164	=164
4.D# 4.FF##X 4.AAA#\	4.dd# 4.f##X 4.d#/
8d# 8F##X\	8b 8f##/
=165	=165
8d#L 8F#\	8a#L 8f##X/
8d# 8A#\	8dd# 8f##/
8d#J 8D#\	8ff##XJ 8f##/
8r	8r
=166	=166
8C##X\L	8a# 8g#/
8c##XJ 8A# 8G#\	4gg#\
8AA#\L	.
8c##J 8A# 8G#\	8ff##X\
!!LO:LB:g=original
=167	=167
8C##X\L	16ff##X\LL
.	16ee#X\
8c##XJ 8A# 8G#\	16ee#\
.	16dd##X\JJ
8AA#\L	4ee#\
8c##J 8A# 8G#\	.
=168	=168
8DD#\L	8a# 8f##X\
8d#J 8F##X\	4ff##X 4f##\
8AA#\L	.
8d#J 8F##\	8dd#\
=169	=169
16A#\LL	16a#\LL
16d#\	16dd#\
16A#\	16a#\
16F##X\JJ	16f##X\JJ
4D#\	4d#\
=170||	=170||
8E\L	8ee\L
8eJ 8G#\	8dd#\
8D#\L	8cc#\
8eJ 8G#\	8b#X\J
=171	=171
8C#\L	8cc#\
8eJ 8G#\	8r
8GG#\L	8cc#\
8eJ 8G#\	8r
=172	=172
8EE\L	8cc#\
8eJ 8G#\	8r
8CC#\L	8cc#\
8eJ 8G#\	8r
=173	=173
.	32qqdd#/
8c#L 8C#\	8cc#\L
8B#XJ 8BB#X\	8b#X\J
4c# 4C#\	4cc#\
=174	=174
8D#\L	8dd#\L
8d#J 8F#\	8cc#\
8C#\L	8bn\
8d#J 8F#\	8a#\J
!!LO:LB:g=original
=175	=175
8BB\L	8b\
8d#J 8F#\	8r
8FF#\L	8b\
8d#J 8F#\	8r
=176	=176
8DD#\L	8b\
8d#J 8F#\	8r
8BBB\L	8b\
8d#J 8F#\	8r
=177	=177
.	16qqcc#/
8BL 8BB\	8b\L
8A#J 8AA#\	8a#\J
4B 4BB\	4b\
=178	=178
!LO:TX:t=P:problem=mixed beam	!
8AA#L 8DD#/	4.a# 4.d#\
8d#J 8F##X\	.
4d# 4F##\	.
.	8dd#\
=179	=179
8D#\L	4.a# 4.d#/
8d#J 8F##X\	.
4d# 4F##\	.
.	8A#/
=180	=180
!LO:TX:t=P:problem=mixed beam	!
8AA#L 8DD#/	4.a# 4.d#\
8d#J 8F##X\	.
4d# 4F##\	.
.	8dd#\
=181	=181
8D#\L	4.a# 4.d#/
8d#J 8F##X\	.
4d# 4F##\	.
.	8A#/
=182	=182
!LO:TX:t=P:problem=mixed beam	!
8DD#L 8GGG#/	4.g# 4.d#/
8B#XJ 8D#\	.
4B# 4D#\	.
.	8dd#/
!!LO:LB:g=original
=183	=183
8GG#\L	4.g# 4.d#/
8B#XJ 8D#\	.
4B# 4D#\	.
.	8G#/
=184	=184
8GG#\L	16g#LL 16d#/
.	16G#/
8B#XJ 8D#\	16g# 16d#/
.	16G#/
8GG#\L	16g# 16d#/
.	16G#/
8B#J 8D#\	16g# 16d#/
.	16G#/JJ
=185	=185
8GG#/	8g# 8d#/
8r	8r
4d# 4G# 4D#\	4dd#\
=186	=186
8E\L	8ee\L
8eJ 8G#\	8dd#\
8D#\L	8cc#\
8eJ 8G#\	8b#X\J
=187	=187
8C#\L	8cc#\
8eJ 8G#\	8r
8GG#\L	8ccc#\
8eJ 8G#\	8r
=188	=188
*	*8va
!LO:TX:t=P:problem=mixed beam	!
8EE/L	8cccc#\
*	*X8va
8eJ 8G#\	8r
!LO:TX:t=P:problem=mixed beam	!
8CC#/L	8cc#\
8eJ 8G#\	8r
=189	=189
.	16qqdd#/
8c#L 8C#\	8cc#\L
8B#XJ 8BB#X\	8b#X\J
4c# 4C#\	4cc#\
=190	=190
.	32qqdd#/LLL
.	32qqff#/JJJ
8D#\L	8dd#\L
8d#J 8F#\	8cc#\
8C#\L	8b\
8d#J 8F#\	8a#\J
!!LO:LB:g=original
=191	=191
8BB\L	8b\
8d#J 8F#\	8r
8FF#\L	8bb\
8d#J 8F#\	8r
=192	=192
8DD#\L	8bbb\
8d#J 8F#\	8r
8BBB\L	8bb\
8d#J 8F#\	8r
=193	=193
.	32qqcc#/
8BL 8BB\	8b\L
8A#J 8AA#\	8a#\J
4B 4BB\	4b\
=194	=194
!LO:TX:t=P:problem=mixed beam	!
8AA#L 8DD#/	4.a# 4.d#\
8d#J 8F##X\	.
4d# 4F##\	.
.	8dd#\
=195	=195
8D#\L	4.a# 4.d#\
8d#J 8F##X\	.
4d# 4F##\	.
.	8A#/
=196	=196
8GG#\L	16g#\LL
.	16d#\
8BJ 8D#\	16g#\
.	16d#\
8AA#\L	16a#\
.	16d#\
8BJ 8D#\	16a#\
.	16d#\JJ
=197	=197
8BB\L	16b\LL
.	16d#\
8BJ 8D#\	16b\
.	16d#\
8GG#\L	16g#\
.	16d#\
8BJ 8D#\	16g#\
.	16d#\JJ
=198	=198
8AA# 8DD#/	8a# 8d#\
4F##X 4D#\	4d#\
8G# 8D#\	8c##X\
=199	=199
8F##XL 8D#\	8d#\L
8F## 8D#\	8f##X\
8F##J 8D#\	8a#\J
8r	8r
!!LO:LB:g=original
=200	=200
8D# 8AA# 8DD#\	8dd# 8a# 8d#\
4f##X 4A# 4F##X\	4dd# 4a# 4d#\
8g# 8B 8G#\	8cc##X 8b 8c##X\
=201	=201
8f##XL 8A# 8F##X\	8dd#L 8a# 8d#/
8f## 8A# 8F##\	8ff##X 8dd# 8f##X/
8f##J 8A# 8F##\	8aa#J 8dd# 8a#/
8r	8r
=202	=202
8D#\	8ddd#\
*clefG2	*
4dd# 4f##X 4d#\	4ddd#\
8cc##X 8g# 8d#\	8ccc##X\
=203	=203
8dd#L 8f##X 8d#\	16eee\LL
.	16fff##X\
8cc##X 8g# 8d#\	16bbb\
.	16ccc##X\
8dd# 8f## 8d#\	16ddd#\
.	16fff##\
8cc##J 8g# 8d#\	16bbb\
.	16ccc##\JJ
=204	=204
8dd# 8f##X 8d#\	2ddd#tt>\
4r	.
8aaa#\	.
=205	=205
*8va	*
8dddd#\	2ddd#tt>\
*X8va	*
4r	.
8aa# 8a#\	.
=206	=206
*	*^
8dd#L 8d#\	2ddd#tt>/	8ddd#\
8dd#J 8f##X\	.	8rff
8c#\L	.	8ccc#\
8dd#J 8f##\	.	8rff
=207	=207	=207
8B\L	2ddd#tt>/	8bb\
8dd#J 8f##X\	.	8rff
8A#\L	.	8aa#\
8dd#J 8f##\	.	8rff
!!LO:PB:g=original
*	*v	*v
=208	=208
8G#/L	8ddd# 8gg#\
8bJ 8d#/	4ddd# 4gg#\
8F##X/L	.
8bJ 8d#/	8ff##X\
=209	=209
.	32qqaa#/
8bL 8d# 8G#/	8gg#\L
8bJ 8d# 8F##X/	8ff##X\J
4b 4d# 4G#/	4gg#\
*clefF4	*
=210	=210
*	*^
8G#\L	2gg#TT>/	8gg#\
8g#J 8B#X\	.	8rff
8F#\L	.	8ff#\
8g#J 8B#\	.	8rff
=211	=211	=211
8E\L	2gg#TT>/	8ee\
8g#J 8B#X\	.	8rff
8D#\L	.	8dd#\
8g#J 8B#\	.	8rff
*	*v	*v
=212	=212
8C#\L	8gg# 8cc#\
8eJ 8G#\	4gg# 4cc#\
8BB#X\L	.
8eJ 8G#\	8b#X\
=213	=213
.	32qqdd#/
8eL 8G# 8C#\	8cc#\L
8eJ 8G# 8BB#X\	8b#X\J
4e 4G# 4C#\	4cc#\
=214	=214
.	32qqcc#/
!LO:TX:t=P:problem=mixed beam	!
8AA#L 8AAA#/	8ee\L
8F#\J	8cc#J 8f# 8A#\
!LO:TX:t=P:problem=mixed beam	!
8FF#L 8FFF#/	4cc# 4f# 4A#\
8F#\J	.
=215	=215
.	32qqb/
!LO:TX:t=P:problem=mixed beam	!
8BBL 8BBB/	8dd#\L
8F#\J	8bJ 8f# 8B\
!LO:TX:t=P:problem=mixed beam	!
8FF#L 8FFF#/	4b 4f# 4B\
8F#\J	.
!!LO:LB:g=original
=216	=216
8AA#\L	8r
8eJ 8A# 8F#\	8cc#M>\L
8FF#\L	8b#X\
8eJ 8A# 8F#\	8cc#\J
=217	=217
8BB\L	8ff# 8dd#\
8d#J 8F#\	8r
8FF#\L	4ff# 4dd#\
8d#J 8F#\	.
=218	=218
.	32qqcc#/
!LO:TX:t=P:problem=mixed beam	!
8AA#L 8AAA#/	8ee\L
8F#\J	8cc#J 8f# 8A#\
!LO:TX:t=P:problem=mixed beam	!
8FF#L 8FFF#/	4cc# 4f# 4A#\
8F#\J	.
=219	=219
.	32qqb/
!LO:TX:t=P:problem=mixed beam	!
8BBL 8BBB/	8dd#\L
8F#\J	8bJ 8f# 8B\
!LO:TX:t=P:problem=mixed beam	!
8FF#L 8FFF#/	4b 4f# 4B\
8F#\J	.
=220	=220
8DD#\L	8r
8c# 8F##X\	8a#\L
8D#\	8dd#\
8c#J 8F##\	8d#\J
=221	=221
2B 2G#\	2g#/
*kcancel	*kcancel
=222:|!	=222:|!
*>C	*>C
*k[b-e-a-d-]	*k[b-e-a-d-]
8AA- 8EE- 8AAA-/	8cc 8a- 8c\
8r	8r
4e- 4A- 4E-\	4cc 4a- 4c\
!!LO:LB:g=original
=223	=223
8D- 8DD-/	8b- 8f 8B-/
8r	8r
4f 4B- 4F\	4b- 4f 4B-/
=224	=224
8E- 8BB- 8EE-/	8dd- 8g 8d-\
8r	8r
4g 4f-X 4G\	4dd- 4g 4d-\
=225	=225
8A- 8E- 8AA-\	8cc 8a- 8c\
8r	8r
4a- 4e- 4A-\	4cc 4a- 4c\
=226	=226
8FF\L	8ff 8cc 8a- 8f\
*clefG2	*
8ccJ 8a- 8f\	4ff\
8c\L	.
8ccJ 8a- 8f\	16een\LL
.	16ff\JJ
=227	=227
8c\L	16gg\LL
.	16ff\
8ccJ 8a- 8f\	16een\
.	16ff\
8c\L	16gg\
.	16ff\
8ccJ 8a- 8f\	16ee\
.	16ff\JJ
=228	=228
8F/L	8aa-\L
8b-J 8en 8d-/	16aa-\L
.	16gg\
8b-L 8e 8d-/	16gg\
.	16ff\
8b-J 8e 8d-/	16ff\
.	16een\JJ
=229	=229
8a-L 8f/	16gg\LL
.	16ff\
8b-J 8c/	16ff\
.	16een\JJ
4a- 4f/	4ff\
!!LO:LB:g=original
=230	=230
*clefF4	*
8AA- 8EE- 8AAA-/	8cc 8a- 8c\
8r	8r
4e- 4A- 4E-\	4cc 4a- 4c\
=231	=231
8D- 8DD-/	8b- 8f 8B-\
8r	8r
4f 4d- 4B- 4F\	4b- 4f 4B-\
=232	=232
8E- 8EE-/	8dd- 8g 8d-\
8r	8r
4g 4en 4G\	4dd- 4g 4d-\
=233	=233
8A- 8E-X 8AA-\	8cc 8a- 8c\
8r	8r
4a- 4e- 4A-\	4cc 4a- 4c\
=234	=234
!LO:TX:t=P:problem=mixed beam	!
8FF/L	8aa- 8cc 8a-\
*clefG2	*
8ffJ 8cc 8a-\	4aa-\
8c\L	.
8ffJ 8cc 8a-\	16gg\LL
.	16aa-\JJ
=235	=235
8c\L	16bb-\LL
.	16aa-\
8ffJ 8cc 8a-\	16gg\
.	16aa-\
8c\L	16bb-\
.	16aa-\
8ffJ 8cc 8a-\	16gg\
.	16aa-\JJ
=236	=236
8d-\L	8ccc\L
8ff-XJ 8b-\	16ccc\L
.	16bb-\
8e-\L	16bb-\
.	16aa-\
8ee-J 8dd- 8g\	16aa-\
.	16gg\JJ
!!LO:LB:g=original
=237	=237
8ccL 8a-\	16bb-\LL
.	16aa-\
8dd-J 8e-\	16aa-\
.	16gg\JJ
4cc 4a-\	4aa-\
*clefF4	*
=238||	=238||
8A-L 8AA-\	8cccL 8aa- 8cc\
8a- 8c\	8bbnJ 8gg 8bn\
8cc 8e-\	4ccc 4aa- 4cc\
8a-J 8c\	.
=239	=239
!LO:TX:t=P:problem=mixed beam	!
8D-L 8DD-/	8ffL 8dd- 8f\
8f 8A-\	8eenJ 8cc 8en\
8a- 8d-\	4ff 4dd- 4f\
8fJ 8A-\	.
=240	=240
!LO:TX:t=P:problem=mixed beam	!
8E-L 8EE-/	4gg 4dd- 4g\
8d- 8G\	.
8g 8d-\	4ddd- 4gg 4dd-\
8d-J 8G\	.
=241	=241
8A-L 8AA-\	2ccc 2aa- 2cc\
8c 8A-\	.
8a- 8c\	.
8cJ 8A-\	.
=242	=242
8FL 8FF\	8aa-L 8ff 8a-\
8c 8F\	8ggJ 8een 8g\
8f 8A-\	4aa- 4ff 4a-\
8cJ 8F\	.
=243	=243
!LO:TX:t=P:problem=mixed beam	!
8D-L 8DD-/	8ffL 8bn 8f\
8BnJ 8F\	8eenJ 8en\
8fL 8G\	4ff 4f\
8BJ 8F\	.
!!LO:LB:g=original
=244	=244
8CL 8CC\	8een 8cc 8en\
8c 8G 8En\	4ccc 4cc\
8en 8B-\	.
8cJ 8E\	8ee 8cc 8e\
=245	=245
8FL 8C 8FF\	16ggLL 16cc 16g\
.	16ff\
8cJ 8A-\	16ff 16cc 16f\
.	16een\JJ
4c 4A-\	4ff 4cc 4f\
=246	=246
8A-L 8AA-\	8cccL 8aa- 8cc\
8a- 8c\	8bbnJ 8gg 8bn\
8cc 8e-\	4ccc 4aa- 4cc\
8a-J 8c\	.
=247	=247
8D-L 8DD-\	8ffL 8dd- 8f\
8d- 8F\	8eenJ 8cc 8en\
8f 8A-\	4ff 4dd- 4f\
8d-J 8F\	.
=248	=248
8E-L 8EE-\	4gg 4dd- 4g\
8d- 8G\	.
8g 8d-\	4ddd- 4gg 4dd-\
8d-J 8G\	.
=249	=249
8A-L 8AA-\	2ccc 2aa- 2cc\
8c 8A-\	.
8a- 8c\	.
8cJ 8A-\	.
=250	=250
8FL 8FF\	8aa-L 8ff 8a-\
8c 8F\	8ggJ 8een 8g\
8f 8A-\	4aa- 4ff 4a-\
8cJ 8F\	.
!!LO:PB:g=original
=251	=251
8D-L 8DD-\	8ffL 8dd- 8f\
8d- 8F\	8eenJ 8cc 8en\
8f 8A-\	4ff 4dd- 4f\
8d-J 8F\	.
=252	=252
8E-L 8EE-\	8gg 8dd- 8g\
8d- 8E-\	4eee- 4ee-\
8g 8d-\	.
8d-J 8E-\	8gg 8dd- 8g\
=253	=253
8c 8E- 8AA-\	8aa- 8cc 8a-\
4c 4A-\	4a-\
8d- 8A-\	8g\
=254	=254
8cL 8A-\	8a-\L
8c 8A-\	8cc\
8cJ 8A-\	8ee-\J
8r	8r
=255	=255
8A- 8AA-\	8aa- 8ee- 8a-\
*clefG2	*
4cc 4e- 4c\	4aa- 4ee- 4a-\
8dd- 8f-X 8d-\	8gg 8ff-X 8g\
=256	=256
8ccL 8e- 8c\	8aa-L 8ee- 8a-\
8cc 8e- 8c\	8ccc 8aa- 8cc\
8ccJ 8e- 8c\	8eee-J 8aa- 8ee-\
8r	8r
=257	=257
*	*8va
8A-\	8aaa-\
4aa- 4cc 4a-\	4aaa-\
8aa- 8dd- 8a-\	8ggg\
!!LO:LB:g=original
=258	=258
8aa-L 8cc 8a-\	16aaa-\LL
.	16cccc\
8aa-J 8dd- 8a-\	16eeee-\
.	16ggg\
8aa-L 8cc 8a-\	16aaa-\
.	16cccc\
8aa-J 8dd- 8a-\	16eeee-\
.	16ggg\JJ
=259	=259
[?2aa- [?2cc [<2a-\	2aaa-TT>\
.	16qqgggn\LL
.	16qqaaa-\JJ
=260	=260
8aa-] 8cc] 8a-\]	8aaaa-\
*	*X8va
8r	8r
*clefF4	*
8c 8E- 8AA-\	8eee-: 8aa-: 8ee-: 8a-:\
8r	8r
=261	=261
!LO:TX:a:Bi:t=Fine.	!
2c: 2E-: 2AA-:\	2aa-: 2ee-: 2a-: 2e-:\
==	==
*-	*-
!!!system-decoration: {(s1,s2)}
!!!RDF**kern: > = above
!!!RDF**kern: < = below
!!!RDF**kern: | = vertical stroke
!!!RDF**kern: N = linked
!!!RDF**kern: i = editorial accidental
!!!EED: Wojciech Jakubiak-Danek
!!!EEV: 2021-06-06
!!!ENC: Mateusz Solarz
!!!END: 2021-05-26
